X: 1
T: Charlie O'Donnell's
M: 4/4
L: 1/8
S: Altan
R: reel
K: Edor
EB~B2 BABc|d2AF DEFD|~E2cE BABc|dAFA BE~E2|
EB~B2 BABc|d2AF DEFD|EBBA FABc|dBA=c BE~E2||
Beed egfe|d2fd adfd|Beed egfe|dAFA BE~E2|
Beed egfe|defg abaf|gage fgfe|dBAF DEFD||
